lib/healthicons/icons/outline/typography/C.svg

<svg fill="none" height="48" viewBox="0 0 48 48" width="48" xmlns="http://www.w3.org/2000/svg"><path clip-rule="evenodd" d="m18.2597 10.1418c2.7409-1.1353 5.7569-1.43235 8.6667-.85357 2.9097.57878 5.5824 2.00737 7.6802 4.10517 1.1716 1.1716 1.1716 3.0711 0 4.2426-1.1716 1.1716-3.0711 1.1716-4.2426 0-1.2587-1.2586-2.8624-2.1158-4.6082-2.4631-1.7458-.3472-3.5554-.169-5.1999.5122-1.6446.6812-3.0502 1.8347-4.0391 3.3148-.989 1.48-1.5168 3.2201-1.5168 5.0001s.5278 3.5201 1.5168 5.0001c.9889 1.4801 2.3945 2.6336 4.0391 3.3148 1.6445.6812 3.4541.8594 5.1999.5122 1.7458-.3473 3.3495-1.2045 4.6082-2.4631 1.1715-1.1716 3.071-1.1716 4.2426 0 1.1716 1.1715 1.1716 3.071 0 4.2426-2.0978 2.0978-4.7705 3.5264-7.6802 4.1052-2.9098.5788-5.9258.2817-8.6666-.8536-2.7409-1.1353-5.0836-3.0579-6.7318-5.5246-1.64826-2.4668-2.528-5.3669-2.528-8.3336s.87973-5.8668 2.528-8.3335c1.6482-2.4668 3.9909-4.3894 6.7317-5.5247zm8.2765 1.108c-2.5218-.5016-5.1356-.2442-7.5111.7398-2.3754.9839-4.4057 2.6502-5.8342 4.788s-2.1909 4.6512-2.1909 7.2224.7624 5.0846 2.1909 7.2224c1.4285 2.1379 3.4588 3.8041 5.8342 4.788 2.3755.984 4.9893 1.2414 7.5111.7398 2.5217-.5016 4.8381-1.7397 6.6562-3.5578.3905-.3905.3905-1.0237 0-1.4142s-1.0237-.3905-1.4142 0c-1.5384 1.5384-3.4984 2.586-5.6322 3.0104-2.1338.4245-4.3455.2066-6.3555-.6259-2.01-.8326-3.728-2.2425-4.9367-4.0514-1.2087-1.809-1.8538-3.9357-1.8538-6.1113s.6451-4.3023 1.8538-6.1113c1.2087-1.8089 2.9267-3.2188 4.9367-4.0514 2.01-.8325 4.2217-1.0504 6.3555-.6259 2.1338.4244 4.0938 1.4721 5.6322 3.0104.3905.3906 1.0237.3906 1.4142 0 .3905-.3905.3905-1.0237 0-1.4142-1.8181-1.8181-4.1345-3.0562-6.6562-3.5578z" fill="#333" fill-rule="evenodd"/></svg>

<svg width="48" height="48" viewBox="0 0 48 48" fill="none" xmlns="http://www.w3.org/2000/svg">
<path fill-rule="evenodd" clip-rule="evenodd" d="M18.2597 10.1418C21.0006 9.0065 24.0166 8.70945 26.9264 9.28823C29.8361 9.86701 32.5088 11.2956 34.6066 13.3934C35.7782 14.565 35.7782 16.4645 34.6066 17.636C33.435 18.8076 31.5355 18.8076 30.364 17.636C29.1053 16.3774 27.5016 15.5202 25.7558 15.1729C24.01 14.8257 22.2004 15.0039 20.5559 15.6851C18.9113 16.3663 17.5057 17.5198 16.5168 18.9999C15.5278 20.4799 15 22.22 15 24C15 25.78 15.5278 27.5201 16.5168 29.0001C17.5057 30.4802 18.9113 31.6337 20.5559 32.3149C22.2004 32.9961 24.01 33.1743 25.7558 32.8271C27.5016 32.4798 29.1053 31.6226 30.364 30.364C31.5355 29.1924 33.435 29.1924 34.6066 30.364C35.7782 31.5355 35.7782 33.435 34.6066 34.6066C32.5088 36.7044 29.8361 38.133 26.9264 38.7118C24.0166 39.2906 21.0006 38.9935 18.2598 37.8582C15.5189 36.7229 13.1762 34.8003 11.528 32.3336C9.87974 29.8668 9 26.9667 9 24C9 21.0333 9.87973 18.1332 11.528 15.6665C13.1762 13.1997 15.5189 11.2771 18.2597 10.1418ZM26.5362 11.2498C24.0144 10.7482 21.4006 11.0056 19.0251 11.9896C16.6497 12.9735 14.6194 14.6398 13.1909 16.7776C11.7624 18.9154 11 21.4288 11 24C11 26.5712 11.7624 29.0846 13.1909 31.2224C14.6194 33.3603 16.6497 35.0265 19.0251 36.0104C21.4006 36.9944 24.0144 37.2518 26.5362 36.7502C29.0579 36.2486 31.3743 35.0105 33.1924 33.1924C33.5829 32.8019 33.5829 32.1687 33.1924 31.7782C32.8019 31.3877 32.1687 31.3877 31.7782 31.7782C30.2398 33.3166 28.2798 34.3642 26.146 34.7886C24.0122 35.2131 21.8005 34.9952 19.7905 34.1627C17.7805 33.3301 16.0625 31.9202 14.8538 30.1113C13.6451 28.3023 13 26.1756 13 24C13 21.8244 13.6451 19.6977 14.8538 17.8887C16.0625 16.0798 17.7805 14.6699 19.7905 13.8373C21.8005 13.0048 24.0122 12.7869 26.146 13.2114C28.2798 13.6358 30.2398 14.6835 31.7782 16.2218C32.1687 16.6124 32.8019 16.6124 33.1924 16.2218C33.5829 15.8313 33.5829 15.1981 33.1924 14.8076C31.3743 12.9895 29.0579 11.7514 26.5362 11.2498Z" fill="#333333"/>
</svg>
